app/assets/images/projects-mobileapp.svg

<svg xmlns="http://www.w3.org/2000/svg" width="400" height="400" viewBox="0 0 400 400"><path fill="#010101" d="M285.908 65V285.91H114.092V65h171.816m0-12.27H114.092c-6.777 0-12.272 5.494-12.272 12.27V285.91c0 6.777 5.495 12.272 12.272 12.272h171.816c6.777 0 12.272-5.495 12.272-12.272V65c0-6.776-5.494-12.27-12.272-12.27zm12.273-24.546c13.5 0 24.546 11.046 24.546 24.545v294.54c0 13.5-11.045 24.546-24.545 24.546H101.82c-13.502 0-24.546-11.046-24.546-24.545V52.73c0-13.5 11.044-24.546 24.545-24.546h196.36m0-24.545H101.82c-27.07 0-49.09 22.02-49.09 49.09v294.54c0 27.068 22.02 49.09 49.09 49.09h196.36c27.068 0 49.09-22.02 49.09-49.09V52.73c0-27.07-22.02-49.09-49.09-49.09zM200 322.725c6.777 0 12.272 5.495 12.272 12.272 0 6.778-5.495 12.273-12.272 12.273s-12.272-5.494-12.272-12.272c0-6.777 5.495-12.272 12.272-12.272m0-12.273c-13.535 0-24.545 11.012-24.545 24.545 0 13.534 11.01 24.546 24.545 24.546 13.534 0 24.545-11.012 24.545-24.546 0-13.533-11.01-24.545-24.545-24.545z"/></svg>

<?xml version="1.0" encoding="utf-8"?>
<!-- Generator: Adobe Illustrator 16.0.0, SVG Export Plug-In . SVG Version: 6.00 Build 0)  -->
<!DOCTYPE svg PUBLIC "-//W3C//DTD SVG 1.1//EN" "http://www.w3.org/Graphics/SVG/1.1/DTD/svg11.dtd">
<svg version="1.1" id="Layer_1" xmlns="http://www.w3.org/2000/svg" xmlns:xlink="http://www.w3.org/1999/xlink" x="0px" y="0px"
	 width="400px" height="400px" viewBox="0 0 400 400" enable-background="new 0 0 400 400" xml:space="preserve">
<path fill="#010101" d="M285.908,65.001v220.907H114.092V65.001H285.908 M285.908,52.729H114.092
	c-6.777,0-12.272,5.495-12.272,12.272v220.907c0,6.777,5.495,12.272,12.272,12.272h171.816c6.777,0,12.272-5.495,12.272-12.272
	V65.001C298.181,58.224,292.686,52.729,285.908,52.729L285.908,52.729z M298.181,28.184c13.5,0,24.545,11.046,24.545,24.545v294.542
	c0,13.499-11.045,24.545-24.545,24.545H101.819c-13.501,0-24.545-11.046-24.545-24.545V52.729c0-13.5,11.044-24.545,24.545-24.545
	H298.181 M298.181,3.639H101.819c-27.068,0-49.09,22.022-49.09,49.09v294.542c0,27.067,22.022,49.09,49.09,49.09h196.361
	c27.068,0,49.091-22.022,49.091-49.09V52.729C347.271,25.661,325.249,3.639,298.181,3.639L298.181,3.639z M200,322.726
	c6.777,0,12.272,5.495,12.272,12.272c0,6.778-5.495,12.273-12.272,12.273s-12.272-5.495-12.272-12.273
	C187.728,328.221,193.223,322.726,200,322.726 M200,310.453c-13.535,0-24.545,11.012-24.545,24.545
	c0,13.534,11.01,24.546,24.545,24.546c13.534,0,24.545-11.012,24.545-24.546C224.545,321.465,213.534,310.453,200,310.453
	L200,310.453z"/>
</svg>
